src/icons/svg/wps.svg

<?xml version="1.0" standalone="no"?><!DOCTYPE svg PUBLIC "-//W3C//DTD SVG 1.1//EN" "http://www.w3.org/Graphics/SVG/1.1/DTD/svg11.dtd"><svg t="1655689355926" class="icon" viewBox="0 0 1024 1024" version="1.1" xmlns="http://www.w3.org/2000/svg" p-id="18726" xmlns:xlink="http://www.w3.org/1999/xlink" width="128" height="128"><defs><style type="text/css">@font-face { font-family: feedback-iconfont; src: url("//at.alicdn.com/t/font_1031158_u69w8yhxdu.woff2?t=1630033759944") format("woff2"), url("//at.alicdn.com/t/font_1031158_u69w8yhxdu.woff?t=1630033759944") format("woff"), url("//at.alicdn.com/t/font_1031158_u69w8yhxdu.ttf?t=1630033759944") format("truetype"); }
</style></defs><path d="M661.333333 725.333333H597.333333l-85.333333-320-85.333333 320H362.666667L260.266667 298.666667h72.533333l65.706667 320 85.333333-320h59.733333l85.333334 320L694.186667 298.666667h72.533333m46.933333-170.666667H213.333333a85.333333 85.333333 0 0 0-85.333333 85.333333v597.333334a85.333333 85.333333 0 0 0 85.333333 85.333333h597.333334a85.333333 85.333333 0 0 0 85.333333-85.333333V213.333333a85.333333 85.333333 0 0 0-85.333333-85.333333h2.986666z" p-id="18727"></path></svg>

<svg class="icon" viewBox="0 0 1024 1024" xmlns="http://www.w3.org/2000/svg" width="128" height="128"><defs><style>@font-face{font-family:feedback-iconfont;src:url(//at.alicdn.com/t/font_1031158_u69w8yhxdu.woff2?t=1630033759944) format(&quot;woff2&quot;),url(//at.alicdn.com/t/font_1031158_u69w8yhxdu.woff?t=1630033759944) format(&quot;woff&quot;),url(//at.alicdn.com/t/font_1031158_u69w8yhxdu.ttf?t=1630033759944) format(&quot;truetype&quot;)}</style></defs><path d="M661.333 725.333h-64l-85.333-320-85.333 320h-64l-102.4-426.666H332.8l65.707 320 85.333-320h59.733l85.334 320 65.28-320h72.533M813.653 128h-600.32A85.333 85.333 0 0 0 128 213.333v597.334A85.333 85.333 0 0 0 213.333 896h597.334A85.333 85.333 0 0 0 896 810.667V213.333A85.333 85.333 0 0 0 810.667 128h2.986z"/></svg>
